X:2211
T:Miss Janet Laing's Strathspey
P:Miss Janet Laing's Strathspey
C:Nan Main
R:Strathspey (4x32)
B:RSCDS 22-11
Z:Anselm Lingnau <anselm@strathspey.org>
M:4/4
L:1/8
K:D
A2|"D"F2 F/E/D A3d|"G"B>A Bd "A7"e3f|gb eg "D"fa d>f|"E7"g>f ed "A"e2A2|
   "D"F2 F/E/D A3d|"G"B>c de "F#"f3e|\
        "G"dB dc/B/ "D"A<d "Bm"Fd|"Em"B<e "A7"cA "D"d2||
c2|"Bm"B2Bd "Fm#7"_Bc Fc|"Bm"B>c de "F#m7"f3 e|\
   "Bm"d/e/f Bd "F#m7"c/d/e Fe|"Bm"dB "F#m7"cA "Bm"B3 c|
   "D"d2ad "A7"c2ac|"G"Bg dB "F#"f3e|"G"dB dc/B/ "D"Ad F>d|"A7"Be c>A "D"d2|]
